X:1
T:Bruxelles, 87.87 D
T:Bruxelles, 87.87 D
T:William Lesley Mason, 1899
T:Public Domain Courtesy of the Cyber Hymnal™
C:William Lesley Mason, 1899
Z:Public Domain
Z:Courtesy of the Cyber Hymnal™
%%score ( 1 2 ) ( 3 4 )
L:1/8
Q:1/4=107
M:9/8
K:Ab
V:1 treble 
V:2 treble 
V:3 bass 
V:4 bass 
V:1
 ([Ec][=D=B])[Ec] | [CA]3 [CE]3 (EA)[DB] | [CA]3 [B,G]3 (GA)[D=A] | [DB]3 [DE]3 (Bc)[Ed] | %4
 [Ec]6 ([Ec][=D=B])[Ec] | [CA]3 [CE]3 (A[GB])[_Gc] | [Ee]3 !fermata![Fd]3 (FG)[_B,F] | %7
 [CE]3 [Ec]3 (BF)[_DG] | [CA]6 ([FA][DF])[FA] | [Fd]8 [Fd] (dA)[=EB] | [Ec]3 [Ec]6 (AG)[EA] | %11
 B8 [Ge] (eB)[Gd] | [Ac]6- [Ac]3 ([Ac][GB])[_Gc] | [Fd]8 [Fd] (de)[Af] | [Ae]3 [Ac]6 (cA)[Ac] | %15
 [Ae]8 [Ae]"^rit." [Ae]2 [DG] | A6- [CA]3 |] %17
V:2
 x3 | x6 C2 x | x6 D2 x | x6 E2 x | x9 | x6 A x2 | x6 =B,2 x | x6 =D2 x | x9 | x9 F2 x | x9 E2 x | %11
 (G2 G G2 G G2) G2 x2 | x12 | x9 F2 x | x9 A2 x | x12 | C2 C D2 B, x3 |] %17
V:3
 [A,,A,]2 [A,,A,] | [A,,A,]3 [A,,A,]3 A,2 A, | E,3 E,3 [E,B,]2 [E,B,] | %3
 [E,G,]3 [E,G,]3 [E,G,]2 [E,G,] | A,6 [A,,A,]2 [A,,A,] | [A,,A,]3 [A,,A,]3 A,2 A, | %6
 [D,A,]3 !fermata![D,A,]3 [=D,A,]2 [D,A,] | [E,A,]3 [E,A,]3 [F,B,]2 [E,B,] | [A,,A,]6 z3 | %9
 ([D,A,]2 [D,A,] [D,A,]2 [D,A,] [D,A,]2) [D,A,] [D,A,]2 [D,A,] | %10
 A,2 A, A,2 A, A,2 A, ([A,C][B,D])[A,C] | ([E,E]2 [E,E] [E,E]2 [E,E] [E,E]2) [E,B,] [E,B,]2 [E,E] | %12
 ([A,E]2 [A,E] [A,E]2 [A,E] [A,E]3) [A,E]2 [A,E] | %13
 ([D,D]2 [D,D] [D,D]2 [D,D] [D,D]2) [D,D] [D,D]2 [D,D] | %14
 [A,C]2 [A,C] ([A,E]2 [A,E] [A,E]2 [A,E]) (EC)[A,E] | %15
 ([E,E]3 [E,E]2 [E,E] [E,E]2) [E,E] [E,B,]2 [E,B,] | A,2 E, F,2 F, [A,,E,]3 |] %17
V:4
 x3 | x6 A,2 A, | E,3 E,3 x3 | x9 | A,6 x3 | x6 A,2 A, | x9 | x9 | x9 | x12 | %10
 A,2 A, (A,2 A, A,2 A,) x3 | x12 | x12 | x12 | x9 A,2 x | x12 | A,,6- x3 |] %17

